X:1
T:Partition sans titre
C:Compositeur / Arrangeur
L:1/8
M:4/4
I:linebreak $
K:G
V:1 treble nm="Violon" snm="Vln."
V:1
"G" gfga gede |"D" fdfd A2 AB |"C" cdeg"D" fedf | edfd"G" B4 |"G" gfga gede |"D" fdfd A2 AB | %6
"C" cdeg"D" fedf |1"C" e2"D" f2"G" g4 :|2"C" e2"D" f2"G" g2 Bc |:"G" d2 B2 g2 Bc | d2 c2"D" A2 AB | %11
"C" cdeg"D" fedf | edfd"G" G2 Bc |"G" d2 B2 g2 Bc | d2 c2"D" A2 AB |"C" cdeg"D" fedf |1 %16
"C" e2"D" f2"G" g2 Bc :|2"C" e2"D" f2"G" g4 |] %18
